!!!!SEGMENT: pl-sa--549-a-ix-29--004_anonim--mazur.krn
!!!cenid: 18xx:460
!!!COM: Anonim
!!!COM-rismID: pe30004985
!!!CDT:
!!!CNT:
!!!OTL: Mazur
!!!PDT:
!!!AGN: Secular; Mazurka
!!!SMS-siglum: PL-SA
!!!SMS-shelfmark: 549/A IX 29
!!!SMS-shelfwork: 004 W
!!!SMS-variant:
!!!SMS-altvar:
!!!NIFC-rismSourceID: 1001068313
!!!NIFC-islandoraID:
!!!URL-pdf-islandora:
!!!URL-scan: https://bc.bdsandomierz.pl/dlibra/publication/1441/edition/1409/content @EN{Scan in the Sandomierz Diocese Digital Library} @PL{Skany w portalu Cyfrowa Biblioteka Diecezjalna w Sandomierzu}
!!!ONB-nifc: Str. 5 (s. 2-4)
!!!AIN: 1 piano
!!!key: D
**kern	**kern	**dynam
*group1	*group1	*
*part1	*part1	*part1
*staff2	*staff1	*
*I"[Piano]	*I"[Piano]	*
*Ipiano	*Ipiano	*
*ICklav	*ICklav	*
*clefF4	*clefG2	*
*k[f#c#]	*k[f#c#]	*
*D:	*D:	*
*M3/8	*M3/8	*
*kcancel	*kcancel	*
=1	=1	=1
8ryy	8aa\L	.
*tremolo	*	*
!LO:TX:a:t=| | |:problem	!	!
8D\ 8F#\ 8AL\	8.dd\ 8.ff#\ 8.ddd\	.
8D\ 8F#\ 8AJ\	.	.
.	16ccc#\Jk	.
=2	=2	=2
8G\ 8B\L	8bb\L	sf
8G\ 8B\	8.g\ 8.b\ 8.gg\	.
8G\ 8B\J	.	.
.	16ee\Jk	.
=3	=3	=3
8AA\ 8C#\ 8E\ 8A\L	16cc#\LL	.
.	16a\	.
8AA\ 8C#\ 8E\ 8A\	16cc#\	.
.	16ee\	.
8AA\ 8C#\ 8E\ 8A\J	16bb\	.
.	16aa\JJ	.
=4	=4	=4
8BB\ 8F#\ 8A\L	16ff#\LL	.
.	16gg\	.
8BB\ 8F#\ 8A\	16ee\	.
.	16ff#\J	.
8BB\ 8F#\ 8A\J	8dd\J	.
*Xtremolo	*	*
=5	=5	=5
!LO:N:vis=16.	!	!
8.F#\ 8.A\LL	8a\L	.
.	8.ee\	.
!LO:N:vis=16	!	!
8.d\JJ	.	.
.	16dd\Jk	.
=6	=6	=6
!LO:N:vis=16.	!	!
8.G\ 8.B\LL	8b\L	.
.	8.ff#\	.
!LO:N:vis=16.	!	!
8.c#\JJ	.	.
.	16ee\Jk	.
=7	=7	=7
!LO:N:vis=16.	!	!
8.A\ 8.c#\ 8.g\LL	16dd\LL	.
.	16cc#\	.
.	16bb\	.
!LO:N:vis=16.	!	!
8.e\JJ	16aa\	.
.	16gg\	.
.	16ee\JJ	.
=8	=8	=8
8B\ 8d\	16ee\LL	.
.	16dd\JJ	.
4B\ 4d\	4dd\	.
=9:|!|:	=9:|!|:	=9:|!|:
8D\L	8a\L	.
.	8qqee/	.
8E\ 8G\ 8d\	16dd\L	.
.	16cc#\	.
8F#\J 8A\ 8d\	16dd\	.
.	16ff#\JJ	.
=10:|!	=10:|!	=10:|!
!!mixed beam:problem
!LO:TX:t=P:problem=mixed beam	!	!
8AA/L	16aa\LL	.
.	16gg\J	.
8G\ 8B\ 8c#\	8ee\	.
8G\J 8B\ 8c#\	8ee\J	.
=11:|!	=11:|!	=11:|!
8D\L	8a\L	.
.	8qqee/	.
8F#\ 8A\ 8d\	16dd\L	.
.	16cc#\	.
8F#\J 8A\ 8d\	16dd\	.
.	16ff#\JJ	.
=12:|!	=12:|!	=12:|!
*k[f#c#]	*k[f#c#]	*
!!mixed beam:problem
!LO:TX:t=P:problem=mixed beam	!	!
8AA/L	8.bb\L	.
8G\ 8A\ 8c#\	.	.
.	16aa\L	.
8G\J 8A\ 8c#\	16gg\	.
.	16ee\JJ	.
!!LO:LB:g=original
=13	=13	=13
8D\	16gg\LL	.
.	16ff#\JJ	.
4D\ 4F#\ 4A\ 4d\	4dd\	.
=14:|!|:	=14:|!|:	=14:|!|:
*k[f#]	*k[f#]	*
8.G\L 8.B\	16gg\LL	.
.	16bb\JJ	.
.	8ddd\L	.
8.d\J	.	.
.	8ddd\J	.
=15	=15	=15
16G\LL 16A#\ 16e\	16ccc#X\LL	.
16e\	16ccc#\JJ	.
16G\ 16B\	8ddd\L	.
16d\	.	.
16G\ 16B\	8ddd\J	.
16d\JJ	.	.
=16:|!	=16:|!	=16:|!
4.G\ 4.B\ 4.d\ 4.f#\	(>4ffn\ 4fffn\	.
.	16eee\LL)	.
.	16ddd\JJ	.
=17	=17	=17
8A\	16ccc\LL	.
.	16bb\	.
4c\ 4e\	16aa\	.
.	16gg\	.
.	16ff#\	.
.	16ee\JJ	.
=18	=18	=18
8F#\	16ee-X\LL	.
.	16dd\	.
4A\ 4c\	16ee-\	.
.	16dd\	.
.	16ee-\	.
.	16dd\JJ	.
=19	=19	=19
*tremolo	*	*
8D\ 8F# 8A 8c\L	16eee\LL	.
.	16ddd\	.
8D\ 8F# 8A 8c\	16ccc#X\	.
.	16ddd\	.
8D\ 8F# 8A 8c\J	16dd\	.
.	16ff#\JJ	.
*Xtremolo	*	*
=20	=20	=20
!	!LO:TX:a:t=P:problem=nieczytelny zapis	!
8G\L 8B\	16aa\LL	.
.	16gg\J	.
8G\J 8B\	8gg\J	.
!LO:TX:a:t=P:problem=brak jednej miary	!LO:TX:a:t=P:problem=brak jednej miary	!
8ryy	8ryy	.
=21:|!	=21:|!	=21:|!
!!LO:TX:t=P:problem:nieczytelny zapis
.	8qqcc#X/	.
!LO:N:vis=16.	!	!
8.G\ 8.B\L	8dd\	.
.	8a#\L 8cc#y\ 8aa#\	.
!LO:N:vis=16.	!	!
8.d\J	.	.
.	8b\J 8dd\ 8bb\	.
!!LO:LB:g=original
=22:|!	=22:|!	=22:|!
!LO:N:vis=16.	!	!
8.F#\ 8.A\ 8.c\LL	16bb\LL	.
.	16ccc\	.
.	16aa\	.
!LO:N:vis=16	!	!
8.d\JJ	16ff#\	.
.	16aa\	.
.	16ccc\JJ	.
=23	=23	=23
!LO:N:vis=16.	!	!
8.G\ 8.B\LL	(>16eee\LL	.
.	16ddd\JJ)	.
.	8ddd\L	.
!LO:N:vis=16	!	!
8.d\JJ	.	.
.	8qqccc/	.
.	8ddd\J	.
=24	=24	=24
*rep	*	*
.	8qqcc#X/	.
8.G\ 8.B\LL	8dd\	.
.	(>8a#X\L 8cc#y\ 8aa#X\	.
8.d\JJ	.	.
.	8b\J) 8dd\ 8bb\	.
*Xrep	*	*
=25:|!	=25:|!	=25:|!
!LO:N:vis=16.	!	!
8.F#\ 8.A\ 8.c\LL	16bb\LL	.
.	16ccc\	.
.	16aa\	.
!LO:N:vis=16	!	!
8.d\JJ	16ccc\	.
.	16eee\	.
.	16ddd\JJ	.
=26	=26	=26
8G\ 8B\	16ddd\LL	.
.	16gg\JJ	.
4G\ 4B\	4gg\	.
=:|	=:|	=:|
*-	*-	*-
!!!system-decoration: [{g1}]
!!!RDF**kern: > = above
!!!RDF**kern: < = below
!!!ENC: Anastazja Marusiak
!!!END: 2020-06-16
!!!EED: Jędrzej Mróz
!!!EEV: 2022-01-04
!!!YEC: Copyright 2022 Narodowy Instytut Fryderyka Chopina (https://polishscores.org)
!!!YEM: Licence CC BY 4.0 (https://creativecommons.org/licenses/by/4.0)
